assets/icons/24px/stroke/shopping-cart-empty-24px.svg

<svg width="24" height="24" viewBox="0 0 24 24" fill="none" xmlns="http://www.w3.org/2000/svg">
<g clip-path="url(#clip0_878_22627)">
<path fill-rule="evenodd" clip-rule="evenodd" d="M4.62698 6.00894C4.46596 5.98883 4.23578 5.98701 3.80544 5.98701H3C2.44772 5.98701 2 5.5393 2 4.98701C2 4.43473 2.44772 3.98701 3 3.98701H3.80544C3.82156 3.98701 3.83767 3.98701 3.85377 3.98701C4.21634 3.98693 4.57455 3.98686 4.87478 4.02435C5.21606 4.06696 5.60149 4.16952 5.94561 4.46109C6.28972 4.75265 6.45419 5.116 6.55227 5.44565C6.60205 5.61296 6.64267 5.80136 6.67955 5.9995L17.2188 5.99313C18.0244 5.99261 18.7095 5.99217 19.2585 6.05184C19.8332 6.1143 20.4009 6.25415 20.8876 6.63918C21.2361 6.91483 21.519 7.26445 21.7158 7.66276C21.9908 8.21913 22.0091 8.8035 21.9503 9.37861C21.8941 9.92798 21.7507 10.5979 21.5821 11.3856L21.5618 11.4804C21.4482 12.0116 21.349 12.475 21.2314 12.8517C21.1055 13.2547 20.9352 13.6409 20.6342 13.9826C20.4105 14.2366 20.1455 14.451 19.8503 14.6165C19.4531 14.8393 19.0399 14.9251 18.6195 14.9638C18.2265 15.0001 17.7526 15 17.2093 15L8.18079 15L8.20813 15.1642C8.2788 15.5887 8.3184 15.8155 8.36468 15.971C8.36531 15.9731 8.36594 15.9752 8.36655 15.9773C8.36866 15.9775 8.37082 15.9778 8.37302 15.9781C8.53404 15.9982 8.76422 16 9.19456 16H19.5C20.0523 16 20.5 16.4477 20.5 17C20.5 17.5523 20.0523 18 19.5 18H9.19456C9.17844 18 9.16233 18 9.14623 18C8.78365 18.0001 8.42545 18.0002 8.12522 17.9627C7.78394 17.9201 7.39851 17.8175 7.05439 17.5259C6.71028 17.2344 6.54581 16.871 6.44773 16.5414C6.36144 16.2514 6.30269 15.898 6.24322 15.5404C6.24058 15.5245 6.23793 15.5086 6.23529 15.4927L6.01721 14.1828C6.01508 14.1713 6.01315 14.1597 6.01142 14.148L4.79187 6.82279C4.7212 6.3983 4.6816 6.17154 4.63532 6.016C4.63469 6.01388 4.63406 6.0118 4.63345 6.00976C4.63134 6.00949 4.62918 6.00921 4.62698 6.00894ZM7.84782 13H17.167C17.7649 13 18.1457 12.999 18.4359 12.9723C18.7089 12.9471 18.8133 12.9051 18.8719 12.8722C18.9703 12.817 19.0587 12.7456 19.1332 12.6609C19.1776 12.6104 19.2406 12.5172 19.3223 12.2555C19.4092 11.9773 19.4899 11.6051 19.615 11.0204C19.7981 10.1647 19.9169 9.6026 19.9607 9.17506C20.0031 8.76088 19.9563 8.6166 19.9229 8.54894C19.8573 8.41617 19.763 8.29963 19.6468 8.20775C19.5876 8.16093 19.4563 8.08511 19.0424 8.04013C18.6151 7.99369 18.0405 7.99263 17.1655 7.99316L7.01527 7.9993L7.84782 13Z" fill="white"/>
<path d="M20 20.5C20 21.3284 19.3284 22 18.5 22C17.6716 22 17 21.3284 17 20.5C17 19.6716 17.6716 19 18.5 19C19.3284 19 20 19.6716 20 20.5Z" fill="white"/>
<path d="M10.5 20.5C10.5 21.3284 9.82843 22 9 22C8.17157 22 7.5 21.3284 7.5 20.5C7.5 19.6716 8.17157 19 9 19C9.82843 19 10.5 19.6716 10.5 20.5Z" fill="white"/>
</g>
<defs>
<clipPath id="clip0_878_22627">
<rect width="24" height="24" fill="white"/>
</clipPath>
</defs>
</svg>

<svg width="24" height="24" fill="none" xmlns="http://www.w3.org/2000/svg"><g clip-path="url(#clip0_878_22627)" fill="#fff"><path fill-rule="evenodd" clip-rule="evenodd" d="M4.627 6.009c-.161-.02-.391-.022-.822-.022H3a1 1 0 1 1 0-2H3.854c.362 0 .72 0 1.02.037.342.043.727.146 1.072.437.344.292.508.655.606.985.05.167.09.355.128.554l10.539-.007c.805 0 1.49 0 2.04.059.574.062 1.142.202 1.629.587.348.276.631.625.828 1.024.275.556.293 1.14.234 1.716-.056.549-.2 1.219-.368 2.007l-.02.094c-.114.532-.213.995-.33 1.372-.127.403-.297.789-.598 1.13a2.999 2.999 0 0 1-.784.635c-.397.222-.81.308-1.23.347-.393.036-.867.036-1.41.036H8.18l.028.164c.07.425.11.652.157.807 0 .002 0 .004.002.006l.006.001c.161.02.391.022.822.022H19.5a1 1 0 1 1 0 2H9.146c-.362 0-.72 0-1.02-.037-.342-.043-.727-.146-1.072-.437-.344-.292-.508-.655-.606-.985-.087-.29-.145-.643-.205-1l-.008-.048-.218-1.31a.97.97 0 0 1-.006-.035l-1.22-7.325c-.07-.425-.11-.651-.156-.807 0-.002 0-.004-.002-.006l-.006-.001zM7.847 13h9.32c.598 0 .979-.001 1.269-.028.273-.025.377-.067.436-.1a.999.999 0 0 0 .261-.211c.045-.05.108-.144.19-.405.086-.279.167-.65.292-1.236.183-.855.302-1.417.346-1.845.042-.414-.005-.558-.038-.626a1 1 0 0 0-.276-.341c-.06-.047-.19-.123-.605-.168-.427-.046-1.002-.047-1.877-.047L7.016 8 7.848 13z"/><path d="M20 20.5a1.5 1.5 0 1 1-3 0 1.5 1.5 0 0 1 3 0zm-9.5 0a1.5 1.5 0 1 1-3 0 1.5 1.5 0 0 1 3 0z"/></g><defs><clipPath id="clip0_878_22627"><path fill="#fff" d="M0 0H24V24H0z"/></clipPath></defs></svg>
